X: 473
T: Bûselik Mehter
C: Zurnazen İbrahim Ağa
O: Turkey
F: http://compmusic.upf.edu/node/140
N: buselik--mehter--yuruksemai_ii----zurnazen_ibrahim_aga
N: makam= buselik
N: form= mehter
N: usul= yuruksemai_ii = 6/8
M: 6/8
L: 1/16
K: C    
Q: 1/4=108
%%MIDI tuningsystem comma53
e2f2 e2d2 c2B2  | c2B2 c2d2 e4  | G2A2 B2c2 d2e2  | \
w:   |   |   | 
c2d2 c2d2 e4  | 
w:   | 
e2f2 e2d2 c2B2  | c2B2 c2d2 e4  | A2G2 A2c2 d2B2  | \
w:   |   |   | 
c2A2 B2G2 A4  | 
w:   | 
A2G2 A2B2 c4  | B2c2 d2B2 c2B2  | A2G2 A2B2 c4  | \
w:   |   |   | 
B2c2 d2B2 c4  | 
w:   | 
c2B2 c2d2 e4  | e2f2 e2d2 c2B2  | A2G2 A2c2 d2B2  | \
w:   |   |   | 
c2A2 B2G2 A4  | 
w:   | 
G2A2 B2c2 d2e2  | ^f2g2 f2g2 a4  | a2_1/4b2 c'2b2 a4  | \
w:   |   |   | 
g2^f2 g2f2 e4  | 
w:   | 
e6a2 e4  | d2c2 d2c2 B4  | A2G2 A2c2 d2B2  | \
w:   |   |   | 
c2A2 B2G2 A4  | A4 A4 e4  | 
w:   |   | 
e2d2 c2d2 e4  | A4 A4 e4  | d2c2 B2c2 d4  | \
w:   |   |   | 
B2c2 d2e2 c2d2  | e6d2 e4  | 
w:   |   | 
A4 A4 e4  | e2d2 c2d2 e4  | A4 A4 e4  | \
w:   |   |   | 
d2c2 B2c2 d4  | B2c2 d2e2 d2f2  | 
w:   |   | 
e2d2 c2B2 A4  | A2G2 A2c2 d2B2  | c2A2 B2G2 A4  | \
w:   |   |   | 
A4 A4 e4  | e2d2 c2d2 e4  | 
w:   |   | 
A4 A4 e4  | d2c2 B2c2 d4  | B2c2 d2e2 c2d2  | \
w:   |   |   | 
e6d2 e4  | A4 A4 e4  | e2d2 c2d2 e4  | 
w:   |   |   | 
A4 A4 e4  | d2c2 B2c2 d4  | B2c2 d2e2 d2f2  | \
w:   |   |   | 
e2d2 c2B2 A4  | A2G2 A2c2 d2B2  | 
w:   |   | 
c2A2 B2G2 A4  | |


